X: 39921
T: Thomas Reilly, Clerk Of Fore
R: strathspey
M: 4/4
K: Adorian
|:A>G|E<AA>B c2 (3cBA|G<A (3BcB A>GE>D|E<AA>B c2 c>A|G>A (3BcB A2:|
A>f|e<d (3def g>ae>d|e<AA>c B>A G2|e<de>f g>ae>d|e<AA>c A2 A>f|
e<de>f g>ae>d|e<A (3AAA B>A (3GED|E>A (3AAA c>A (3AAA|G>A (3BcB A2||

